X:1
T:Title
%%score { ( 1 3 ) | ( 2 4 ) }
L:1/8
Q:1/4=100
M:4/4
K:C
V:1 treble nm="Grand Piano"
V:3 treble 
V:2 bass 
V:4 bass 
V:1
 [CE]3 [DF] [EG]>[EG] [FA]>[Fc] | [Ec]6 z2 | d3 c B>d [^Fc]>[CFA] | [B,G]6 z2 | %4
w: John~R.~Sweney * * * * *||||
 [G,CE]3 [G,DF] [CEG]>[EGc] [DFB]>[CAc] | [Fd]6 z2 | [Ge]3 [Gc] d>A B>B | [Ec]6 z2 | %8
w: ||||
 [Ec]3 [Ec] [Ec]>[Ge] [Fd]>[Ec] | A6 z2 | B3 B B>d c>B | c6 z2 | c3 c c>B (3dcA | G6 z2 | %14
w: ||||||
 [Ge]3 [Gc] d>A B>B | [Ec]6 z2 |] %16
w: ||
V:2
 [C,G,]3 [C,G,] [C,C]>[C,C] [F,C]>[F,A,] | [C,G,]6 z2 | %2
 [G,B,G]3 [G,CG] [G,DG]>[G,B,G][K:bass] [D,A,]>D, | G,6 z2 | C,3 C, C,>C, D,>F, | [F,A,]6 z2 | %6
 [C,C]3 [E,G,][K:treble] [F,A,F]>[F,DF] [G,DF]>[G,F] | [C,G,]6 z2 | %8
 [C,G,]3 [C,G,] [C,G,]>[C,C] [C,C]>[C,C] | [F,CF]2 [F,C]>[F,C] [F,C]2 z2 | %10
 [E,^G,E]3 [E,G,E] [E,G,E]>[E,B,E] [E,A,E]>[E,G,E] | [A,E]2 [A,C]>[A,C] [A,C]2 z2 | %12
 [F,A,F]3 [F,A,F] [F,A,F]>[F,^G,F] (3[A,F-][CF][A,CF] | [CE]2[K:bass] [G,C]>[E,C] [C,C]2 z2 | %14
 [C,C]3 [E,G,][K:treble] [F,A,F]>[F,CF] [G,DF]>[G,F] | [C,G,]6 z2 |] %16
V:3
 x8 | x8 | x8 | x8 | x8 | x8 | x8 | x8 | x8 | z2 F>F F2 z2 | x8 | z2 E>E E2 z2 | x8 | %13
 z2 E>E E2 z2 | x8 | x8 |] %16
V:4
 x8 | x8 | x6[K:bass] x2 | x8 | x8 | x8 | x4[K:treble] x4 | x8 | x8 | x8 | x8 | x8 | z4 z2 F,2 | %13
 x2[K:bass] x6 | x4[K:treble] x4 | x8 |] %16

